!!!OTL: "Rechter Geschmack" MADL MAGST ANN ROSOLI
!!!ARE: Europa, Mitteleuropa, Ober - Oesterreich
!!!SCT: Z1201
!!!YEM: Copyright 1995, estate of Helmut Schaffrath.
**kern
*ICvox
*Ivox
*M3/4
*k[f#]
*G:
{8d
8g
=1
12b
12dd
12g
2g
=2
8a
8cc
8ee
8a
8cc
8ee
=3
2f#}
{8d
8f#
=4
12a
12cc
12f#
2f#
=5
8g
8b
8dd
8g
8b
8dd
=6
2g}
{8d
8g
=7
12b
12dd
12g
2g
=8
8a
8cc
8ee
8a
8cc
8ee
=9
2f#}
{8d
8f#
=10
8a
8cc
4f#
4f#
=11
2g}
==
!!!AGN: Liebes - Lied
!!!ONB: ESAC (Essen Associative Code) Database: ZUCCAL
!!!AMT: simple triple
!!!AIN: vox
!!!EED: Helmut Schaffrath
!!!EEV: 1.0
*-
